!!!!SEGMENT: pl-kk--kk-i-7--033-001_pekiel-bartlomiej--missa-kyrie.krn
!!!cenid: 16xx:823
!!!COM: Pękiel, Bartłomiej
!!!COM-rismid: pe30105642
!!!CDT: <1633-~1670
!!!CNT: Polish
!!!OPR: Missa
!!!OTL: Kyrie
!!!OMV: 001
!!!PDT: 1664
!!!AGN: Sacred; Mass
!!!SMS-siglum: PL-Kk
!!!SMS-shelfmark: Kk.I.7
!!!SMS-shelfwork: 033-001 M
!!!SMS-variant:
!!!SMS-altvar:
!!!NIFC-rismid: 300258110
!!!system-decoration: [(s1,s2,s3,s4)]
!!!AIN: 1 alto 1 bass 2 tenor
!!!key:
**kern	**text	**kern	**text	**kern	**text	**kern	**text
*part4	*part4	*part3	*part3	*part2	*part2	*part1	*part1
*staff4	*staff4	*staff3	*staff3	*staff2	*staff2	*staff1	*staff1
*Ibass	*	*Itenor	*	*Itenor	*	*Ialto	*
*I"[Bassus]	*	*I"[Tenor II]	*	*I"[Tenor I]	*	*I"[Altus]	*
*I'[B]	*	*I'[T II]	*	*I'[T I]	*	*I'[A]	*
*clefF4	*	*clefC4	*	*clefC4	*	*clefC3	*
*k[]	*	*k[]	*	*k[]	*	*k[]	*
*G:	*	*G:	*	*G:	*	*G:	*
*M2/1	*	*M2/1	*	*M2/1	*	*M2/1	*
*met(C|)	*	*met(C|)	*	*met(C|)	*	*met(C|)	*
=1	=1	=1	=1	=1	=1	=1	=1
*2\right	*	*	*	*2\right	*	*2\right	*
!LO:TX:t=P:problem=all\right&colon; global	!	!LO:TX:t=P:problem=all\right&colon; global	!	!LO:TX:t=P:problem=all\right&colon; global	!	!LO:TX:t=P:problem=all\right&colon; global	!
!	!	!	!	!LO:TX:t=P:problem=w źródle ozdobna litera K na początku pięciolinii [ozdobiona koroną i mieczem, a pod literą K - 'L. et R.']]	!	!LO:TX:t=P:problem=w źródle ozdobna litera K na początku pięciolinii [pod literą K - 'A M.D.G.']	!
!LO:TX:t=P:problem=w źródle ozdobna litera K na początku pięciolinii	!	!LO:TX:t=P:problem=w źródle ozdobna litera K na początku pięciolinii	!	!	!	!	!
!	!	!LO:TX:t=P:problem=kreska pseudotaktowa	!	!	!	!	!
2.G\	Ky-	00r	.	2.d\	Ky-	4.d\	Ky-
.	.	.	.	.	.	8d\	-ri-
!	!	!	!	!	!	!LO:TX:t=P::problem=kreska pseudotaktowa&colon;między nutą a kropką	!
.	.	.	.	.	.	2.g\	-e
!LO:TX:t=P:problem=kreska pseudotaktowa	!	!	!	!LO:TX:t=P:problem=kreska pseudotaktowa	!	!	!
4G\	-ri-	.	.	4d\	-ri-	.	.
2c\	-e	.	.	2e\	-e	.	.
!	!	!	!	!	!	!LO:TX:t=P:problem=♯ above	!
.	.	.	.	.	.	8f#Xi\L	.
.	.	.	.	.	.	8e\J	.
!	!	!	!	!LO:TX:t=P:problem=kreska pseudotaktowa	!	!LO:TX:t=P:problem=kreska pseudotaktowa	!
2A\	e-	.	.	2c\	e-	2f#\	.
=2-	=2-	=2-	=2-	=2	=2	=2	=2
1.G	.	.	.	2B\	.	2.g\	.
.	.	.	.	4G/	.	.	.
!	!	!	!	!LO:TX:t=P:problem=kreska pseudotaktowa	!	!	!
.	.	.	.	4A/	.	8f\L	.
!	!	!	!	!	!	!LO:TX:t=P:problem=kreska pseudotaktowa	!
.	.	.	.	.	.	8e\J	.
.	.	.	.	4B\	.	4d\	.
!	!	!	!	!LO:TX:a:t=P:problem=w źródle skreślony i poprawiany fragment przez skryptora	!	!	!
.	.	.	.	4c\	.	4e\	.
2F\	.	.	.	1d\	-ley-	4f\	.
.	.	.	.	.	.	4d\	.
=3-	=3-	=3-	=3-	=3-	=3-	=3-	=3-
*	*	*2\right	*	*	*	*	*
!	!	!	!	!	!	!LO:TX:t=P:problem=kreska pseudotaktowa	!
1E	-ley-	2.G/	Ky-	.	.	1e	e-
!	!	!	!	!LO:TX:t=P:problem=kreska pseudotaktowa	!	!	!
!	!	!	!	!LO:TX:t=P:problem=♯ above	!	!	!
.	.	.	.	2c#Xi\	.	.	.
.	.	4G/	-ri-	.	.	.	.
!LO:TX:t=P:problem=kreska pseudotaktowa	!	!	!	!LO:TX:t=P:problem=kreska pseudotaktowa	!	!	!
1D	-ſon	2A/	-e	1d	-ſon	4f\	.
.	.	.	.	.	.	4e\	.
!	!	!LO:TX:t=P:problem=kreska pseudotaktowa	!	!	!	!	!
.	.	2F/	e-	.	.	4f\	.
.	.	.	.	.	.	4g\	.
=4	=4	=4	=4	=4	=4	=4-	=4-
2.AA/	ky-	2E/	.	1c	ky-	1a	-lei-
.	.	4C/	.	.	.	.	.
!	!	!LO:TX:t=P:problem=kreska pseudotaktowa	!	!	!	!	!
4BB/	.	4D/	.	.	.	.	.
!	!	!	!	!	!	!LO:TX:t=P:problem=kreska pseudotaktowa	!
4C/	.	4E/	.	2c\	-ri-	1g	-ſon
4D/	.	4F/	.	.	.	.	.
!LO:TX:t=P:problem=kreska pseudotaktowa	!	!	!	!	!	!	!
2E\	.	1G/	.	4B\	-e	.	.
.	.	.	.	8A\L	.	.	.
!	!	!	!	!LO:TX:t=P:problem=kreska pseudotaktowa	!	!	!
.	.	.	.	8G\J	.	.	.
=5-	=5-	=5-	=5-	=5	=5	=5	=5
2.D/	ri-	.	.	2A\	.	0r	.
!	!	!LO:TX:t=P:problem=kreska pseudotaktowa	!	!LO:TX:t=P:problem=kreska pseudotaktowa	!	!	!
.	.	2F#X/	.	2d\	.	.	.
4D/	-e	.	.	.	.	.	.
2E\	e-	2.G/	.	2B\	e-	.	.
!LO:TX:t=P:problem=kreska pseudotaktowa	!	!	!	!	!	!	!
2C/	.	.	.	2e\	-ley-	.	.
.	.	4A/	.	.	.	.	.
=6	=6	=6-	=6-	=6-	=6-	=6-	=6-
!	!	!	!	!LO:TX:t=P:problem=kreska pseudotaktowa	!	!	!
2BB/	.	1.B	-ley-	0d	-ſon	2d\	ky-
!	!	!	!	!	!	!LO:TX:t=P:problem=kreska pseudotaktowa	!
4GG/	.	.	.	.	.	2d\	-ri-
4AA/	.	.	.	.	.	.	.
4BB/	.	.	.	.	.	4g\	-e
4C/	.	.	.	.	.	8f\L	.
.	.	.	.	.	.	8e\J	.
!	!	!	!	!	!	!LO:TX:t=P:problem=kreska pseudotaktowa	!
1D\	.	2A/	-ſon,	.	.	2f\	.
=7-	=7-	=7-	=7-	=7	=7	=7	=7
!	!	!LO:TX:t=P:problem=kreska pseudotaktowa	!	!	!	!	!
.	.	1A	.	1rB	.	1e	e-
2C#X/	-ley-	.	.	.	.	.	.
!LO:TX:t=P:problem=kreska pseudotaktowa	!	!	!	!	!	!	!
1D	-ſon	2r	.	2.A/	ky-	4f\	-lei-
.	.	.	.	.	.	4g\	.
.	.	1d\	ky-	.	.	4a\	.
*	*	*	*	*	*	*custos:g	*
!	!	!	!	!	!	!LO:TX:t=P:problem=kreska pseudotaktowa	!
.	.	.	.	4A/	-ri-	4f\	.
!	!	!	!	!	!	!LO:LB:g=original	!
=8	=8	=8-	=8-	=8-	=8-	=8	=8
!LO:TX:b:i:t=1.	!	!	!	!	!	!	!
!LO:TX:a:i:t=iedna	!	!	!	!	!	!	!
!	!	!	!	!	!	!LO:TX:t=P:problem=kreska pseudotaktowa	!
1r	.	.	.	2B\	-e	1g	-ſon
*	*	*	*	*custos:F#	*	*	*
!	!	!LO:TX:t=P:problem=kreska pseudotaktowa	!	!LO:TX:t=P:problem=kreska pseudotaktowa	!	!	!
.	.	2B\	-ri-	2G/	e-	.	.
!	!	!	!	!LO:LB:g=original	!	!	!
1.D	ky-	4A/	-e	2F#X/	.	00r	.
.	.	4G/	.	.	.	.	.
!	!	!LO:TX:t=P:problem=♯ below	!	!	!	!	!
.	.	4F#Xi/	.	4D/	.	.	.
!	!	!LO:TX:t=P:problem=kreska pseudotaktowa	!	!LO:TX:t=P:problem=kreska pseudotaktowa	!	!	!
.	.	4G/	.	4E/	.	.	.
=9-	=9-	=9	=9	=9	=9	=9-	=9-
.	.	4A\	.	4F/	.	.	.
.	.	4B\	.	4G/	.	.	.
!	!	!LO:TX:t=P:problem=kreska pseudotaktowa	!	!	!	!	!
2AA/	-ri-	2c\	.	1A	.	.	.
2.E\	-[e]	1B	[e]-	.	.	.	.
.	.	.	.	2.G/	.	.	.
*custos:C	*	*	*	*	*	*	*
!LO:TX:t=P:problem=kreska pseudotaktowa	!	!	!	!	!	!	!
4D/	.	.	.	.	.	.	.
!LO:LB:g=original	!	!	!	!	!	!	!
=10-	=10-	=10-	=10-	=10-	=10-	=10-	=10-
!	!	!LO:TX:t=P:problem=kreska pseudotaktowa	!	!	!	!	!
2C/	e-	1A	-ley-	.	.	.	.
!	!	!	!	!LO:TX:t=P:problem=♯ below	!	!	!
.	.	.	.	8F#Xi/L	-ley-	.	.
.	.	.	.	8E/J	.	.	.
!LO:TX:t=P:problem=kreska pseudotaktowa	!	!	!	!LO:TX:t=P:problem=kreska pseudotaktowa	!	!	!
2D/	-ley-	.	.	2F#/	.	.	.
*	*	*	*	*	*	*	*ij
!	!	!	!	!LO:TX:t=P:problem=kreska pseudotaktowa	!	!	!
2GG/	-ſon	2B\	-ſon,	1G	-ſon	2.g\	ky-
*	*	*custos:c	*	*	*	*	*
!	!	!LO:TX:t=P:problem=kreska pseudotaktowa	!	!	!	!	!
4.C/	ky-	2e\	ky-	.	.	.	.
.	.	.	.	.	.	4g\	-ri-
!LO:TX:t=P:problem=kreska pseudotaktowa	!	!	!	!	!	!	!
8C/	-ri-	.	.	.	.	.	.
!	!	!LO:LB:g=original	!	!	!	!	!
=11	=11	=11	=11	=11	=11	=11-	=11-
2F\	-e	2c\	-ri-	00r	.	2a\	-e
!	!	!	!	!	!	!LO:TX:t=P:problem=kreska pseudotaktowa	!
2D\	e-	2d\	-e	.	.	2f\	.
2.A\	.	4c\	.	.	.	2e\	.
.	.	4d\	.	.	.	.	.
.	.	1e\	[e]-	.	.	4c\	.
!LO:TX:t=P:problem=kreska pseudotaktowa	!	!	!	!	!	!LO:TX:t=P:problem=kreska pseudotaktowa	!
4B\	.	.	.	.	.	4d\	.
=12	=12	=12-	=12-	=12-	=12-	=12	=12
2c\	.	.	.	.	.	4e\	.
.	.	.	.	.	.	4f\	.
!LO:TX:t=P:problem=kreska pseudotaktowa	!	!LO:TX:t=P:problem=kreska pseudotaktowa	!	!	!	!	!
2B\	.	2d\	-ley-	.	.	1g	.
1A	-ley-	1c	-ſon	.	.	.	.
!	!	!	!	!	!	!LO:TX:t=P:problem=kreska pseudotaktowa	!
!	!	!	!	!	!	!LO:TX:t=P:problem=♯ above	!
.	.	.	.	.	.	2f#Xi\	.
=13-	=13-	=13-	=13-	=13-	=13-	=13	=13
!LO:TX:t=P:problem=kreska pseudotaktowa	!	!	!	!	!	!	!
1G	-ſon	2B\	.	2.d\	ky-	4g\	.
.	.	.	.	.	.	4d\	.
.	.	4.G/	e-	.	.	2.g\	e-
!	!	!	!	!LO:TX:t=P:problem=kreska pseudotaktowa	!	!	!
.	.	.	.	4d\	-ri-	.	.
!	!	!LO:TX:t=P:problem=kreska pseudotaktowa	!	!	!	!	!
.	.	8G/	.	.	.	.	.
0r	.	2c\	-ley-	2e\	-e	.	.
!	!	!	!	!	!	!LO:TX:t=P:problem=♯ above	!
.	.	.	.	.	.	8f#Xi\L	-lei-
.	.	.	.	.	.	8e\J	.
!	!	!	!	!LO:TX:t=P:problem=kreska pseudotaktowa	!	!LO:TX:t=P:problem=kreska pseudotaktowa	!
!	!	!	!	!	!	!LO:TX:t=P:problem=♯ above	!
.	.	2A/	.	2c\	.	2f#Xi\	-ſon
*	*	*	*	*	*	*	*Xij
=14-	=14-	=14-	=14-	=14	=14	=14	=14
!	!	!LO:TX:t=P:problem=kreska pseudotaktowa	!	!	!	!	!
.	.	1G	-ſon	2B\	e-	2.g\	ky-
.	.	.	.	4G/	.	.	.
!	!	!	!	!LO:TX:t=P:problem=kreska pseudotaktowa	!	!	!
.	.	.	.	4A/	.	8f\L	.
.	.	.	.	.	.	8e\J	.
!LO:TX:t=P:problem=kreska pseudotaktowa	!	!	!	!	!	!	!
1r	.	0r	.	4B\	.	4d\	.
.	.	.	.	4c\	.	4e\	.
.	.	.	.	4d\	.	2.f\	.
!	!	!	!	!LO:TX:t=P:problem=kreska pseudotaktowa	!	!	!
.	.	.	.	4c\	.	.	.
=15	=15	=15-	=15-	=15	=15	=15-	=15-
2.G\	Ky-	.	.	4B\	.	.	.
.	.	.	.	2c\	-ley-	4e\	.
!	!	!	!	!	!	!LO:TX:t=P:problem=kreska pseudotaktowa	!
.	.	.	.	.	.	2d\	-ri-
!LO:TX:t=P:problem=kreska pseudotaktowa	!	!	!	!	!	!	!
4G\	-ri-	.	.	4B\	.	.	.
!	!	!LO:TX:t=P:problem=kreska pseudotaktowa	!	!	!	!	!
2A\	-e	1r	.	2c\	-ſon	2c/	-e
*	*	*	*	*	*ij	*	*
!LO:TX:t=P:problem=kreska pseudotaktowa	!	!	!	!LO:TX:t=P:problem=kreska pseudotaktowa	!	!	!
2F\	e-	.	.	2A/	ky-	2d\	.
=16	=16	=16	=16	=16	=16	=16-	=16-
2E\	.	4.G/	ky-	2B\	-ri-	1e	.
.	.	8G/	-ri-	.	.	.	.
!	!	!LO:TX:t=P:problem=kreska pseudotaktowa	!	!	!	!	!
4C/	.	2.c\	-e	4E/	-e	.	.
!LO:TX:t=P:problem=kreska pseudotaktowa	!	!	!	!LO:TX:t=P:problem=kreska pseudotaktowa	!	!	!
!	!	!	!	!LO:TX:t=P:problem=♯ below	!	!	!
4D/	.	.	.	4F#Xi/	.	.	.
4E\	.	.	.	4G/	.	2e\	e-
!LO:TX:t=P:problem=♯ above	!	!	!	!	!	!	!
!	!	!LO:SIC:v:s=8A\L	!	!	!	!	!
4F#Xi\	.	8B\L	.	4A/	.	.	.
.	.	8A\J	.	.	.	.	.
!	!	!LO:TX:t=P:problem=kreska pseudotaktowa	!	!	!	!LO:TX:t=P:problem=kreska pseudotaktowa	!
4G\	.	2G/	.	4B\	.	2d\	-lei-
!	!	!	!	!LO:TX:t=P:problem=kreska pseudotaktowa	!	!	!
!LO:TX:t=P:problem=♯ above	!	!	!	!	!	!	!
8F#Xi\L	-ley-	.	.	4c\	.	.	.
8E\J	.	.	.	.	.	.	.
=17-	=17-	=17	=17	=17	=17	=17	=17
0D	.	2F#X/	e-	4d\	e-	0d	.
.	.	.	.	4c\	.	.	.
.	.	1G	.	4B\	.	.	.
.	.	.	.	8A/L	.	.	.
.	.	.	.	8G/J	.	.	.
.	.	.	.	1A	-ley-	.	.
.	.	2F#/	-ley-	.	.	.	.
=18-	=18-	=18-	=18-	=18-	=18-	=18-	=18-
!LO:TX:a:t=P:problem=W źródle nuta [nuty] przypomina 'terminal long'	!	!	!	!LO:TX:t=P:problem=fermata above/below	!	!	!
!	!	!	!	!LO:TX:t=P:problem=w źródle brak podwójnej kreski taktowej [pseudotaktowej]	!	!LO:TX:t=P:problem=kreska taktowa [pseudotaktowa] podwójna	!
!LO:TX:t=P:problem=kreska taktowa [pseudotaktowa] podwójna	!	!LO:TX:t=P:problem=kreska taktowa [pseudotaktowa] podwójna	!	!	!	!	!
0GGl	-ſon.	0G;>	-ſon	0B;;	-ſon	0d;<	-ſon.
*	*	*	*	*	*Xij	*	*
!LO:LB:g=original	!	!LO:LB:g=original	!	!LO:PB:g=original	!	!LO:PB:g=original	!
=19||	=19||	=19||	=19||	=19||-	=19||-	=19||	=19||
*M2/1	*	*M2/1	*	*M2/1	*	*M2/1	*
*met(C|)	*	*met(C|)	*	*met(C|)	*	*met(C|)	*
!	!	!	!	!LO:TX:t=P:problem=w źródle ozdobna litera C na początku pięciolinii	!	!LO:TX:t=P:problem=w źródle ozdobna litera C na początku pięciolinii	!
!LO:TX:t=P:problem=w źródle ozdobna litera C na początku pięciolinii	!	!LO:TX:t=P:problem=w źródle ozdobna litera C na początku pięciolinii	!	!	!	!	!
!	!	!LO:TX:t=P:problem=kreska pseudotaktowa	!	!	!	!LO:TX:t=P:problem=kreska pseudotaktowa	!
00r	.	0r	.	1d	CHri-	00r	.
.	.	.	.	2e\	-ſte	.	.
!	!	!	!	!LO:TX:t=P:problem=kreska pseudotaktowa	!	!	!
.	.	.	.	2c\	e-	.	.
=20-	=20-	=20-	=20-	=20	=20	=20-	=20-
.	.	1G	CHri-	4d\	.	.	.
.	.	.	.	4c\	.	.	.
.	.	.	.	4B\	.	.	.
.	.	.	.	8A\L	.	.	.
!	!	!	!	!LO:TX:t=P:problem=kreska pseudotaktowa	!	!	!
.	.	.	.	8B\J	.	.	.
.	.	2A/	-ſte	1c	.	.	.
!	!	!LO:TX:t=P:problem=kreska pseudotaktowa	!	!	!	!	!
.	.	2F/	e-	.	.	.	.
=21-	=21-	=21	=21	=21-	=21-	=21	=21
!LO:TX:t=P:problem=kreska pseudotaktowa	!	!	!	!	!	!	!
0r	.	4G/	.	2B\	.	1g	CHri-
.	.	4F/	.	.	.	.	.
.	.	4E/	.	1c	.	.	.
.	.	8D/L	-ley-	.	.	.	.
!	!	!LO:TX:t=P:problem=kreska pseudotaktowa	!	!	!	!	!
.	.	8E/J	.	.	.	.	.
.	.	1F	-ſon	.	.	2a\	-ſte
!	!	!	!	!LO:TX:t=P:problem=kreska pseudotaktowa	!	!LO:TX:t=P:problem=kreska pseudotaktowa	!
.	.	.	.	2d\	.	2f\	e-
=22	=22	=22-	=22-	=22	=22	=22	=22
1C	CHri-	2C/	.	4e\	.	4g\	.
.	.	.	.	4d\	.	4f\	.
!	!	!LO:TX:t=P:problem=kreska pseudotaktowa	!	!	!	!	!
.	.	2rF	.	4c\	.	4e\	.
.	.	.	.	4B\	.	8d\L	.
!	!	!	!	!	!	!LO:TX:t=P:problem=kreska pseudotaktowa	!
.	.	.	.	.	.	8e\J	.
2D/	-ſte	1d	Chri-	2A/	.	2f#X\	-lei-
!LO:TX:t=P:problem=kreska pseudotaktowa	!	!	!	!	!	!	!
2BB/	e-	.	.	2B\	.	1g\	.
=23	=23	=23-	=23-	=23-	=23-	=23-	=23-
4C/	.	2e\	-ſte	2G/	-ley-	.	.
4BB/	.	.	.	.	.	.	.
!	!	!LO:TX:t=P:problem=kreska pseudotaktowa	!	!	!	!	!
4AA/	.	2c\	.	2c\	-ſon	1a	.
8GG/L	.	.	.	.	.	.	.
8AA/J	.	.	.	.	.	.	.
*lig	*	*	*	*	*	*	*
!	!	!	!	!LO:TX:t=P:problem=kreska pseudotaktowa	!	!	!
1BB	-ley-	4d\	e-	1B	.	.	.
.	.	4c\	.	.	.	.	.
.	.	4B\	.	.	.	1g\	.
.	.	8A\L	.	.	.	.	.
!	!	!LO:TX:t=P:problem=kreska pseudotaktowa	!	!	!	!	!
.	.	8B\J	.	.	.	.	.
=24-	=24-	=24	=24	=24	=24	=24-	=24-
1AA	.	1c	-ley-	2r	.	.	.
!	!	!	!	!	!	!LO:TX:t=P:problem=kreska pseudotaktowa	!
.	.	.	.	2A/	Chri-	2f#X\	-ſon
*Xlig	*	*	*	*	*	*	*
!LO:TX:t=P:problem=kreska pseudotaktowa	!	!LO:TX:t=P:problem=kreska pseudotaktowa	!	!	!	!	!
1GG	-ſon	1B	-ſon	2B/	-ſte	2g\	.
!	!	!	!	!LO:TX:t=P:problem=kreska pseudotaktowa	!	!	!
.	.	.	.	2G/	e-	2g\	e-
=25	=25	=25	=25	=25	=25	=25-	=25-
1D	Chri-	0r	.	4A/	.	4f#X\	-lei-
.	.	.	.	4G/	.	4e\	.
!	!	!	!	!LO:TX:t=P:problem=♯ below	!	!	!
.	.	.	.	4F#Xi/	.	4d\	.
!	!	!	!	!	!	!LO:TX:t=P:problem=kreska pseudotaktowa	!
.	.	.	.	8E/L	.	4c/	.
!	!	!	!	!LO:TX:t=P:problem=kreska pseudotaktowa	!	!	!
.	.	.	.	8F#/J	.	.	.
2E\	-ſte	.	.	2G/	.	2B/	.
!LO:TX:t=P:problem=kreska pseudotaktowa	!	!	!	!	!	!	!
2C/	.	.	.	2E/	.	2c/	-ſon
=26	=26	=26-	=26-	=26-	=26-	=26-	=26-
*	*	*	*	*custos:G	*	*	*
!	!	!LO:TX:t=P:problem=kreska pseudotaktowa	!	!	!	!	!
!	!	!	!	!LO:TX:t=P:problem=♯ above	!	!	!
4D/	.	1r	.	2F#Xi/	.	2A/	.
4C/	.	.	.	.	.	.	.
!	!	!	!	!LO:LB:g=original	!	!	!
!	!	!	!	!	!	!LO:TX:t=P:problem=kreska pseudotaktowa	!
4BB/	e-	.	.	1G	.	2B/	Chri-
8AA/L	-ley-	.	.	.	.	.	.
8GG/J	.	.	.	.	.	.	.
!	!	!	!	!	!	!LO:TX:t=P:problem=kreska pseudotaktowa	!
1AA	.	1A	Chri-	.	.	1c	-ſte,
!	!	!	!	!LO:TX:t=P:problem=kreska pseudotaktowa	!	!	!
.	.	.	.	2F#X/	-ley-	.	.
=27	=27	=27-	=27-	=27	=27	=27	=27
!LO:TX:t=P:problem=kreska pseudotaktowa	!	!	!	!	!	!	!
1GG	-ſon	2B\	-ſte	1G	-ſon	4B/	e-
.	.	.	.	.	.	4c/	.
!	!	!LO:TX:t=P:problem=kreska pseudotaktowa	!	!	!	!	!
.	.	2G/	.	.	.	4d\	.
!	!	!	!	!	!	!LO:TX:t=P:problem=kreska pseudotaktowa	!
.	.	.	.	.	.	4e\	.
!	!	!	!	!	!	!LO:TX:t=P:problem=♯ above	!
00r	.	4A/	e-	2rF	.	4f#Xi\	.
.	.	4G/	.	.	.	4g\	.
*	*	*	*	*	*	*custos:g	*
!	!	!	!	!	!	!LO:TX:t=P:problem=kreska pseudotaktowa	!
!	!	!LO:TX:t=P:problem=♯ below	!	!	!	!	!
.	.	4F#Xi/	.	2d\	Chri-	2a\	-lei-
.	.	8E/L	.	.	.	.	.
!	!	!LO:TX:t=P:problem=kreska pseudotaktowa	!	!	!	!	!
.	.	8F#/J	.	.	.	.	.
!	!	!	!	!	!	!LO:LB:g=original	!
=28-	=28-	=28	=28	=28-	=28-	=28	=28
*	*	*custos:E	*	*	*	*	*
.	.	2G/	.	2e\	-ſte	2g\	ſon
!	!	!LO:LB:g=original	!	!	!	!	!
*	*	*	*	*	*	*	*ij
!	!	!LO:TX:t=P:problem=kreska pseudotaktowa	!	!LO:TX:t=P:problem=kreska pseudotaktowa	!	!LO:TX:t=P:problem=kreska pseudotaktowa	!
.	.	2E/	.	2c#X\	e-	2g\	Chri-
.	.	2F#X/	.	4d\	.	4f#X\	-ſte
.	.	.	.	4c#\	.	4e\	.
!	!	!LO:TX:t=P:problem=kreska pseudotaktowa	!	!	!	!	!
.	.	2G/	.	4B\	.	4d\	.
.	.	.	.	8A\L	.	8c\L	.
!	!	!	!	!LO:TX:t=P:problem=kreska pseudotaktowa	!	!LO:TX:t=P:problem=kreska pseudotaktowa	!
.	.	.	.	8B\J	.	8d\J	.
=29-	=29-	=29	=29	=29	=29	=29	=29
*	*	*	*	*	*	*lig	*
.	.	4C/	.	1c	.	1e	.
.	.	4D/	.	.	.	.	.
.	.	4E/	.	.	.	.	.
.	.	4F/	.	.	.	.	.
!LO:TX:t=P:problem=kreska pseudotaktowa	!	!	!	!	!	!	!
0r	.	2G/	.	2B\	.	1.d	e-
!	!	!LO:TX:t=P:problem=kreska pseudotaktowa	!	!LO:TX:t=P:problem=kreska pseudotaktowa	!	!	!
.	.	2F#X/	.	2A/	.	.	.
=30-	=30-	=30	=30	=30	=30	=30-	=30-
.	.	2G/	-ley-	2B/	.	.	.
*	*	*	*	*	*	*Xlig	*
!	!	!	!	!	!	!LO:TX:t=P:problem=kreska pseudotaktowa	!
.	.	2E/	.	2G/	.	2e\	.
*	*ij	*	*	*	*	*	*
1D	Chri-	2D/	-ſon	4A/	.	1f#X	.
.	.	.	.	4G/	.	.	.
.	.	4d\	e-	4F#X/	.	.	.
!	!	!LO:TX:t=P:problem=kreska pseudotaktowa	!	!	!	!	!
.	.	4c\	.	8E/L	.	.	.
!	!	!	!	!LO:TX:t=P:problem=kreska pseudotaktowa	!	!	!
.	.	.	.	8F#/J	.	.	.
=31-	=31-	=31	=31	=31	=31	=31-	=31-
2E/	-ſte	4B\	.	2G/	.	1e	.
.	.	8A\L	.	.	.	.	.
.	.	8B\J	.	.	.	.	.
2C/	.	4c\	.	4A/	.	.	.
!	!	!LO:TX:t=P:problem=kreska pseudotaktowa	!	!	!	!	!
.	.	4B\	.	4G/	.	.	.
4D/	.	2A\	.	4F#X/	.	2d\	.
4C/	.	.	.	8E/L	.	.	.
.	.	.	.	8F#/J	.	.	.
!	!	!LO:TX:t=P:problem=kreska pseudotaktowa	!	!LO:TX:t=P:problem=kreska pseudotaktowa	!	!	!
4BB/	e-	2B\	.	2D/	.	1g\	.
8AA/L	-ley-	.	.	.	.	.	.
8GG/J	.	.	.	.	.	.	.
=32-	=32-	=32	=32	=32	=32	=32-	=32-
0AA	.	2c#X\	.	4A/	.	.	.
.	.	.	.	4E/	.	.	.
!	!	!	!	!	!	!LO:TX:t=P:problem=kreska pseudotaktowa	!
.	.	1d	-ley-	4.F/	.	2fny\	.
.	.	.	.	8G/	-ley-	.	.
!	!	!	!	!LO:SIC:v:l:s=-ſon	!	!	!
.	.	.	.	1A	-ſo	1e	-ley-
.	.	2c#X\	.	.	.	.	.
=33-	=33-	=33-	=33-	=33-	=33-	=33-	=33-
!	!	!	!	!LO:TX:t=P:problem=w źródle brak podwójnej kreski taktowej [pseudotaktowej]	!	!LO:TX:t=P:problem=kreska taktowa [pseudotaktowa] podwójna	!
!LO:TX:t=P:problem=kreska taktowa [pseudotaktowa] podwójna	!	!LO:TX:t=P:problem=kreska taktowa [pseudotaktowa] podwójna	!	!	!	!	!
!LO:TX:t=P:problem=fermata above/below	!	!	!	!	!	!	!
0D;;	-ſon	0d;<	-ſon.	0A;<	.	0f#X;<	-ſon
*	*Xij	*	*	*	*	*	*Xij
!LO:LB:g=original	!	!LO:LB:g=original	!	!LO:LB:g=original	!	!	!
=34||	=34||	=34||	=34||	=34||-	=34||-	=34||	=34||
*M2/1	*	*M2/1	*	*M2/1	*	*M2/1	*
*met(C|)	*	*met(C|)	*	*met(C|)	*	*met(C|)	*
!	!	!	!	!LO:TX:t=P:problem=w źródle ozdobna litera K na początku pięciolinii	!	!LO:TX:t=P:problem=w źródle ozdobna litera K zapisana przed metrum C|	!
!LO:TX:t=P:problem=w źródle ozdobna litera K na początku pięciolinii	!	!LO:TX:t=P:problem=w źródle ozdobna litera K na początku pięciolinii	!	!	!	!	!
!	!	!	!	!	!	!LO:TX:b:i:t=2	!
!	!	!	!	!	!	!LO:TX:a:i:t=2	!
4.D/	Ky-	4.d\	Ky-	0r	.	0r	.
8D/	-ri-	8d\	-ri-	.	.	.	.
8E\L	-e	8G/L	-e	.	.	.	.
!LO:TX:t=P:problem=♯ above	!	!	!	!	!	!	!
8F#Xi\	.	8A/	.	.	.	.	.
8G\	.	8B/	.	.	.	.	.
!LO:TX:t=P:problem=kreska pseudotaktowa	!	!LO:TX:t=P:problem=kreska pseudotaktowa	!	!	!	!	!
8E\J	.	8G/J	.	.	.	.	.
!LO:TX:t=P:problem=♯ above	!	!	!	!	!	!	!
8F#Xi\L	.	8A\L	.	.	.	.	.
8G\J	.	8B\J	.	.	.	.	.
4A\	.	2c\	.	.	.	.	.
4D/	e-	.	.	.	.	.	.
!	!	!LO:TX:t=P:problem=kreska pseudotaktowa	!	!	!	!	!
2G\	.	4B\	e-	.	.	.	.
=35-	=35-	=35	=35	=35-	=35-	=35-	=35-
.	.	2A/	-ley-	4.d\	Ky-	4.d\	Ky-
4Fny\	-ley-	.	.	.	.	.	.
.	.	.	.	8d\	-ri-	8d\	-ri-
!LO:TX:t=P:problem=kreska pseudotaktowa	!	!LO:TX:t=P:problem=kreska pseudotaktowa	!	!	!	!	!
2E\	-ſon	2G/	-ſon	8G/L	-e	8e\L	-e
!	!	!	!	!	!	!LO:TX:t=P:problem=♯ above	!
.	.	.	.	8A/	.	8f#Xi\	.
.	.	.	.	8B/	.	8g\	.
!	!	!	!	!LO:TX:t=P:problem=kreska pseudotaktowa	!	!LO:TX:t=P:problem=kreska pseudotaktowa	!
.	.	.	.	8G/J	.	8e\J	.
4D/	.	1rF	.	8A\L	.	8f#X\L	.
.	.	.	.	8B\J	.	8g\J	.
4AA/	e-	.	.	2c\	e-	4a\	.
4.BB/	.	.	.	.	.	4d\	e-
!	!	!	!	!LO:TX:t=P:problem=kreska pseudotaktowa	!	!	!
.	.	.	.	4B\	.	2g\	-lei-
!LO:TX:t=P:problem=kreska pseudotaktowa	!	!	!	!	!	!	!
8C/	.	.	.	.	.	.	.
=36	=36	=36-	=36-	=36	=36	=36-	=36-
*	*	*	*ij	*	*	*	*
2D/	.	4.A/	Ky-	2A/	-ley-	.	.
!	!	!	!	!	!	!LO:TX:t=P:problem=♯ above	!
.	.	.	.	.	.	4f#Xi\	.
.	.	8A/	-ri-	.	.	.	.
!	!	!	!	!	!	!LO:TX:t=P:problem=kreska pseudotaktowa	!
8GG/L	.	8B\L	-e	2G/	-ſon	2g\	-ſon.
8AA/	.	8c\	.	.	.	.	.
8BB/	.	8d\	.	.	.	.	.
!LO:TX:t=P:problem=kreska pseudotaktowa	!	!LO:TX:t=P:problem=kreska pseudotaktowa	!	!	!	!	!
8GG/J	.	8B\J	.	.	.	.	.
*	*	*	*	*	*	*custos:d	*
!	!	!	!	!	!	!LO:TX:t=P:problem=kreska pseudotaktowa	!
8AA/L	-e-	8c\L	.	2rF	.	1r	.
8BB/J	.	8d\J	.	.	.	.	.
2C/	-ley-	4e\	.	.	.	.	.
.	.	4d\	.	4rF	.	.	.
!LO:TX:t=P:problem=kreska pseudotaktowa	!	!	!	!	!	!	!
4BB/	.	2G/	.	8.G/	ky-	.	.
!	!	!	!	!LO:TX:t=P:problem=kreska pseudotaktowa	!	!	!
.	.	.	.	16G/	-ri-	.	.
!	!	!	!	!	!	!LO:LB:g=original	!
=37	=37	=37-	=37-	=37	=37	=37	=37
2AA/	-ſon	.	.	8A\L	-e	2r	.
.	.	.	.	8B\	.	.	.
.	.	4F#X/	e-	8c\	.	.	.
.	.	.	.	8A\J	.	.	.
!LO:TX:t=P:problem=kreska pseudotaktowa	!	!	!	!	!	!	!
2GG/	.	4.G/	-ley-	8B\L	.	4.d\	ky-
.	.	.	.	8c\J	.	.	.
.	.	.	.	2d\	.	.	.
!	!	!LO:TX:t=P:problem=kreska pseudotaktowa	!	!	!	!LO:TX:t=P:problem=kreska pseudotaktowa	!
.	.	8F#/	.	.	.	8d\	-ri-
00r	.	2E/	.	.	.	8e\L	-e
.	.	.	.	.	.	8f\	.
!	!	!	!	!LO:TX:t=P:problem=♯ above	!	!	!
.	.	.	.	4c#Xi\	.	8g\	.
.	.	.	.	.	.	8e\J	.
!	!	!LO:TX:t=P:problem=kreska pseudotaktowa	!	!	!	!	!
.	.	2D/	-ſon	4.d\	e-	8f\L	.
.	.	.	.	.	.	8g\J	.
.	.	.	.	.	.	2a\	.
!	!	!	!	!LO:TX:t=P:problem=kreska pseudotaktowa	!	!	!
.	.	.	.	8c#\	.	.	.
*	*	*	*Xij	*	*	*	*
=38-	=38-	=38	=38	=38	=38	=38-	=38-
.	.	2E/	e-	4B\	.	.	.
.	.	.	.	4.e\	.	4g\	e-
!	!	!	!	!	!	!LO:TX:t=P:problem=kreska pseudotaktowa	!
.	.	4.Fny/	.	.	.	2f\	-lei-
.	.	.	.	8A/	.	.	.
.	.	.	.	2d\	-ley-	.	.
!	!	!LO:TX:t=P:problem=kreska pseudotaktowa	!	!	!	!	!
.	.	8G/	.	.	.	.	.
.	.	2A/	-ley-	.	.	2e\	-ſon
!	!	!	!	!LO:TX:t=P:problem=♯ above	!	!	!
.	.	.	.	4c#Xi\	.	.	.
!	!	!	!	!	!	!LO:TX:t=P:problem=kreska pseudotaktowa	!
.	.	4D/	-ſon	4d\	-ſon	2f#X\	.
.	.	8.D/	ky-	8d\	ky-	.	.
!	!	!	!	!LO:TX:t=P:problem=kreska pseudotaktowa	!	!	!
.	.	.	.	8d\	-ri-	.	.
!	!	!LO:TX:t=P:problem=kreska pseudotaktowa	!	!	!	!	!
.	.	16D/	-ri-	.	.	.	.
=39-	=39-	=39	=39	=39	=39	=39	=39
.	.	8E/L	-e	8G/L	-e	0r	.
!	!	!LO:TX:t=P:problem=♯ below	!	!	!	!	!
.	.	8F#Xi/	.	8A/	.	.	.
.	.	8G/	.	8B/	.	.	.
*	*	*custos:F#	*	*custos:A	*	*	*
.	.	8E/J	.	8G/J	.	.	.
!	!	!LO:LB:g=original	!	!LO:LB:g=original	!	!	!
!	!	!LO:TX:t=P:problem=♯ below	!	!	!	!	!
.	.	8F#Xi/L	.	8A\L	.	.	.
.	.	8G/J	.	8B\J	.	.	.
!	!	!LO:TX:t=P:problem=kreska pseudotaktowa	!	!	!	!	!
.	.	4A/	.	2c\	e-	.	.
2rBB	.	4D/	.	.	.	.	.
.	.	2G/	e-	4B\	-ley-	.	.
!	!	!	!	!LO:TX:t=P:problem=kreska pseudotaktowa	!	!	!
4.D/	Ky-	.	.	2A/	.	.	.
!	!	!LO:TX:t=P:problem=kreska pseudotaktowa	!	!	!	!	!
!	!	!LO:TX:t=P:problem=♯ below	!	!	!	!	!
.	.	4F#Xi/	.	.	.	.	.
!LO:TX:t=P:problem=kreska pseudotaktowa	!	!	!	!	!	!	!
8D/	-ri-	.	.	.	.	.	.
=40	=40	=40	=40	=40	=40	=40-	=40-
!	!	!	!	!	!	!LO:TX:t=P:problem=kreska pseudotaktowa	!
8E\L	-e	8G/L	.	2G/	-ſon	1r	.
!LO:TX:t=P:problem=♯ above	!	!	!	!	!	!	!
8F#Xi\	.	8A/	.	.	.	.	.
8G\	.	8B/	.	.	.	.	.
8E\J	.	8G/J	.	.	.	.	.
!	!	!	!	!LO:TX:t=P:problem=kreska pseudotaktowa	!	!	!
!LO:TX:t=P:problem=♯ above	!	!	!	!	!	!	!
8F#Xi\L	.	8A/L	.	2r	.	.	.
8G\	.	8B/	.	.	.	.	.
8A\	.	8c/	.	.	.	.	.
*custos:G	*	*	*	*	*	*	*
!LO:TX:t=P:problem=kreska pseudotaktowa	!	!LO:TX:t=P:problem=kreska pseudotaktowa	!	!	!	!	!
8F#\J	.	8A/J	.	.	.	.	.
!LO:LB:g=original	!	!	!	!	!	!	!
*	*	*	*	*	*	*	*ij
!	!	!	!	!LO:TX:b:i:t=3	!	!	!
4G\	.	2B/	.	0r	.	4.g\	ky-
8.GG/	ky-	.	.	.	.	.	.
.	.	.	.	.	.	8g\	-ri-
16GG/	-ri-	.	.	.	.	.	.
!	!	!LO:TX:t=P:problem=kreska pseudotaktowa	!	!	!	!	!
8AA/L	-e	2A/	-ley-	.	.	8c\L	-e
8BB/	.	.	.	.	.	8d\	.
8C/	.	.	.	.	.	8e\	.
!LO:TX:t=P:problem=kreska pseudotaktowa	!	!	!	!	!	!LO:TX:t=P:problem=kreska pseudotaktowa	!
8AA/J	.	.	.	.	.	8c\J	.
=41	=41	=41-	=41-	=41-	=41-	=41	=41
8BB/L	.	4G/	.	.	.	8d\L	.
8C/	.	.	.	.	.	8e\J	.
8D/	.	8F/L	.	.	.	2f\	.
8E/J	.	8G/	.	.	.	.	.
8F\L	e-	8A/	.	.	.	.	.
8G\	.	8B/J	.	.	.	.	.
!	!	!	!	!	!	!LO:TX:t=P:problem=kreska pseudotaktowa	!
8A\	.	2c\	.	.	.	4e\	e-
!LO:TX:t=P:problem=kreska pseudotaktowa	!	!	!	!	!	!	!
8G\J	.	.	.	.	.	.	.
4F\	-ley-	.	.	1r	.	2d\	-lei-
4G\	.	4B\	.	.	.	.	.
!LO:TX:t=P:problem=kreska pseudotaktowa	!	!	!	!	!	!	!
2C/	-ſon	4.c\	ſon	.	.	8e\L	.
.	.	.	.	.	.	8f\	.
.	.	.	.	.	.	8g\	.
!	!	!LO:TX:t=P:problem=kreska pseudotaktowa	!	!	!	!LO:TX:t=P:problem=kreska pseudotaktowa	!
.	.	8B\	.	.	.	8e\J	.
=42	=42	=42-	=42-	=42-	=42-	=42	=42
4.D/	ky-	2A/	.	4.d\	ky-	8f#X\L	.
.	.	.	.	.	.	8g\	.
.	.	.	.	.	.	8a\	.
8D/	-ri-	.	.	8d\	-ri-	8f#\J	.
!	!	!LO:TX:t=P:problem=kreska pseudotaktowa	!	!	!	!	!
8E\L	-e	2r	.	8G/L	-e	4g\	.
8F\	.	.	.	8A/	.	.	.
!	!	!	!	!	!	!LO:TX:t=P:problem=kreska pseudotaktowa	!
8G\	.	.	.	8B/	.	4e\	.
!LO:TX:t=P:problem=kreska pseudotaktowa	!	!	!	!LO:TX:t=P:problem=kreska pseudotaktowa	!	!	!
8E\J	.	.	.	8G/J	.	.	.
!	!	!LO:TX:t=P:problem=kreska pseudotaktowa	!	!	!	!	!
8F#X\L	.	1r	.	8A\L	e-	4d\	-ſon
8G\J	.	.	.	8B\J	.	.	.
*	*	*	*	*	*	*	*Xij
2A\	.	.	.	2c\	-ley-	8c\L	e-
.	.	.	.	.	.	8d\J	.
.	.	.	.	.	.	8e\L	.
.	.	.	.	.	.	8fny\J	.
!	!	!	!	!LO:TX:t=P:problem=kreska pseudotaktowa	!	!LO:TX:t=P:problem=kreska pseudotaktowa	!
2G\	.	.	.	4B\	-ſon	4g\	.
=43-	=43-	=43	=43	=43	=43	=43	=43
.	.	4.d\	ky-	4A/	.	2a\	-lei-
*	*	*	*	*	*ij	*	*
!LO:TX:t=P:problem=♯ above	!	!	!	!	!	!	!
4F#Xi\	.	.	.	8.D/	ky-	.	.
.	.	8d\	-ri-	.	.	.	.
.	.	.	.	16D/	-ri-	.	.
!LO:TX:t=P:problem=kreska pseudotaktowa	!	!	!	!	!	!	!
2E^^>\	.	8G/L	-e	8E/L	-e	4g\	-ſon
*	*	*	*	*	*Xij	*	*
!	!	!	!	!LO:TX:t=P:problem=i♯ below	!	!	!
.	.	8A/	.	8F#Xi/	.	.	.
!	!	!	!	!	!	!LO:TX:t=P:problem=kreska pseudotaktowa	!
.	.	8B/	.	8G/	.	4e\	.
!	!	!LO:TX:t=P:problem=kreska pseudotaktowa	!	!LO:TX:t=P:problem=kreska pseudotaktowa	!	!	!
.	.	8G/J	.	8E/J	.	.	.
4D/	.	8A\L	.	8F#X/L	.	4A/	e-
.	.	8B\J	.	8G/	.	.	.
*	*	*	*	*	*	*custos:d	*
4C/	e-	2c\	.	8A/	.	4e\	-e-
.	.	.	.	8G/J	.	.	.
!	!	!	!	!	!	!LO:LB:g=original	!
!LO:TX:t=P:problem=kreska pseudotaktowa	!	!	!	!	!	!LO:TX:t=P::problem=kreska pseudotaktowa&colon;między nutą a kropką	!
2D/	-ley-	.	.	4F#X/	.	2.d\	-lei-
!	!	!LO:TX:t=P:problem=kreska pseudotaktowa	!	!LO:TX:t=P:problem=kreska pseudotaktowa	!	!	!
.	.	4B\	.	4G/	.	.	.
=44	=44	=44	=44	=44	=44	=44	=44
1D	.	4A/	.	4F#X/	.	.	.
.	.	2G/	e-	4B\	e-	4d\	.
.	.	.	.	2A/	-ley-	2d\	-ſon.
!	!	!LO:TX:t=P:problem=♯ below	!	!	!	!	!
.	.	4F#Xi/	-ley-	.	.	.	.
!	!	!	!	!LO:TX:a:t=P:problem=W źródle ostatnia nuta [nuty] przypomina 'terminal long'	!	!	!
!	!	!	!	!LO:TX:a:t=P:problem=W źródle brak kreski końcowej	!	!	!
!LO:TX:t=P:problem=fermata above/below	!	!	!	!	!	!LO:TX:t=P:problem=fermata above/below	!
!LO:N:vis=0	!	!LO:N:vis=0	!	!	!	!LO:N:vis=0	!
1GG;;	-ſon	1G;>	-ſon.	1Bl	-ſon.	1d;;	.
==	==	==	==	==	==	==	==
*-	*-	*-	*-	*-	*-	*-	*-
!!title: @{OTL};
!!!RDF**kern: > = above
!!!RDF**kern: < = below
!!!RDF**kern: l = terminal long
!!!RDF**kern: i = editorial accidental
!!!EED: Wojciech Jakubiak-Danek
!!!EST: 2021-03-10
!!!URL-scan: http://repozytorium.nifc.pl/skany/pl-kk-nut--i-7
!!!ONB-nifc: UWAGA: C (skan 0020-0024, s.34-42), A (0106-0110, s.33-41), T(0181-0185, s.27-35), B(0273–277, s.35-43). Części Mszy: 1. Kyrie, 2. Et in terra, 3. Patrem, 4. Sanctus, 5. Agnus Dei
!!!ENC: Andrzej Kubiczek
!!!END: 2021-02-24
